!!!COM:	Compere, Loyset
!!!CDT:	~1445///-1518/08/16
!!!OTL:	Vous me faittes morir denvie
!!!AGN:	Song; Chanson
!!!SCT:	Com3049
!!!SCA:	Com3049
!!!voices:	3
**kern	**kern	**kern
*staff3	*staff2	*staff1
*Ivox	*Ivox	*Ivox
*I"Contratenor	*I"Tenor	*I"Superius
*I'Ct	*I'T	*I'S
*clefF4	*clefGv2	*clefG2
*k[b-]	*k[b-]	*k[b-]
*M2/1	*M2/1	*M2/1
*met(C)	*met(C)	*met(C)
=1-	=1-	=1-
1G	0r	1g
1G	.	1b-
=2	=2	=2
1F	0r	1a
[1B-	.	1g
=3	=3	=3
1B-]	0r	2f
.	.	1g
1c	.	.
.	.	4f
.	.	4e
=4	=4	=4
2d	1G	0d
2.B-	.	.
.	1B-	.
4A	.	.
2G	.	.
=5	=5	=5
2F	1A	1f
2D	.	.
1E	1G	1g
=6	=6	=6
2D	2F	2a
2.d	1G	1b-
4B-	.	.
2c	4F	4a
.	4E	4g
=7	=7	=7
1.d	0D	0f
4c	.	.
4B-	.	.
=8	=8	=8
1A	4D	4f
.	4E	4g
.	4F	4a
.	4G	4b-
2r	2A	2cc
4G	2B-	[2dd
4A	.	.
=9	=9	=9
4B-	4G	4dd]
4c	4A	4cc
2d	4B-	4b-
.	4c	4a
4D	2d	2b-
4E	.	.
4F	4D	[2a
4G	4E	.
=10	=10	=10
2A	4F	4a]
.	4G	4g
2D	2A	4f
.	.	4e
2G	2.B-	2d
2E	.	[2g
.	8AL	.
.	8GJ	.
=11	=11	=11
1D	1A	2g]
.	.	2f#i
2r	1G	[1g
[2d	.	.
=12	=12	=12
4d]	4G	1g]
4c	4A	.
4B-	4B-	.
4A	4c	.
2B-	4d	1r
.	4e	.
2A	4f	.
.	8eL	.
.	8fJ	.
=13	=13	=13
1G	1g	1b-
2F	1d	2a
[2G	.	[2b-
=14	=14	=14
4G]	1r	2b-]
4A	.	.
4B-	.	4a
4c	.	4g
1d	1B-	[1f
=15	=15	=15
2D	2A	1f]
1d	1B-	.
.	.	1g
4c	4A	.
4B-	4G	.
=16	=16	=16
0c	0F	1a
.	.	4a
.	.	4g
.	.	4f
.	.	4e
=17	=17	=17
2.B-	2.G	1d
4A	4A	.
2G	2B-	4d
.	.	4e
4D	[2A	4f
4E	.	4g
=18	=18	=18
4F	4A]	4a
4G	4G	4b-
2A	4F	4cc
.	4E	8b-L
.	.	8ccJ
2B-	1D	1dd
4A	.	.
[4d	.	.
=19	=19	=19
4d]	4D	2dd
8cL	4E	.
8B-J	.	.
2.A	4F	2.cc
.	4G	.
.	4A	.
8GL	4B-	8b-L
8FJ	.	8aJ
2E	4c	2g
.	8B-L	.
.	8cJ	.
=20	=20	=20
2D	2d	2f
2G	2B-	2.b-
1F	1c	.
.	.	8aL
.	.	8gJ
.	.	2a
=21	=21	=21
2.G	[0B-	2.b-
4F	.	4a
4E-i	.	4g
4D	.	4f
[2E-	.	[2g
=22	=22	=22
4E-]	0B-]	4g]
4D	.	4f
4E-i	.	4g
4D	.	4f
1BB-	.	[1d
=23	=23	=23
2BB-	2r	0d]
2.B-	2G	.
.	2G	.
4G	.	.
2A	2F	.
=24	=24	=24
2G	1G	2r
4F	.	2g
4E	.	.
1D	1A	2g
.	.	2f
=25	=25	=25
1r	1G	1g
1D	2r	1a
.	2c	.
=26	=26	=26
2.C	2c	1g
.	2c	.
4D	.	.
2E-	1B-	2r
2E-i	.	2g
=27	=27	=27
2.E-i	4B-	2g
.	4A	.
.	4B-	2g
4D	4c	.
2BB-	1d	1f
[2B-	.	.
=28	=28	=28
2B-]	4d	4f
.	4c	4e
4A	4d	4f
4G	4e	4g
2F	2f	2a
[2C	[2e	[2g
=29	=29	=29
4C]	4e]	4g]
4D	4d	4f
4E	1d	4e
4F	.	4d
2G	.	1e
2A	2c	.
=30	=30	=30
2B-	2d	1d
1G	1B-	.
.	.	4d
.	.	4e
4F	4A	4f
4E	4G	4g
=31	=31	=31
2D	2F	2a
2.d	1G	2.b-
4B-	.	4a
2c	2F	[2a
=32	=32	=32
1d	1B-	2a]
.	.	2g
2D	1A	[1a
[2F	.	.
=33	=33	=33
2F]	2r	1a]
2F	1c	.
2F	.	2r
2F	2c	[2a
=34	=34	=34
2.F	2c	2a]
.	2c	2a
4E	.	.
1D	1d	2a
.	.	2a
=35	=35	=35
1G	4d	1b-
.	4c	.
.	4d	.
.	4e	.
2F	2f	2a
[2G	[2d	[2b-
=36	=36	=36
4G]	2d]	2b-]
4D	.	.
4F	4c	4a
4G	4B-	4g
1D	2A	4f
.	.	4g
.	4F	4a
.	4G	4b-
=37	=37	=37
2r	4A	2cc
.	4B-	.
2C	2c	4g
.	.	4a
[1G	4G	4b-
.	4A	4cc
.	4B-	2dd
.	4c	.
=38	=38	=38
2G]	2d	4d
.	.	4e
2.F	4D	4f
.	4E	4g
.	4F	4a
8EL	4G	4b-
8DJ	.	.
[2C	4A	2cc
.	4B-	.
=39	=39	=39
2C]	2c	2g
2G	4B-	2b-
.	8AL	.
.	8GJ	.
2.D	2.d	4a
.	.	4b-
.	.	4a
4G	8cL	4b-
.	8B-J	.
=40	=40	=40
4F	4c	4a
4E	4G	2b-
2G	2B-	.
.	.	8aL
.	.	8gJ
2.D	4A	2.f
.	2d	.
4G	8cL	4g
.	8B-J	.
=41	=41	=41
4F	4c	4a
4E	4G	4b-
2G	2B-	2.g
1D	1A	.
.	.	8f#iL
.	.	8eJ
.	.	2f#i
=42	=42	=42
0Gl	0Gl	0gl
==	==	==
*-	*-	*-
!!!RDF**kern: l=long note in original notation
!!!RDF**kern: i=editorial accidental
!!!ENC:	Megan K. Eagen 2013/11/29
!!!END:	2013/11/29/
!!!EED:	Jesse Rodin
!!!EEV:	2014/02/23/
!!!ONB:	Translated from MusicXML and edited on 2014/02/23/ by Craig Sapp
!!muse2ps: C^@{COM}^i2I150v95,95,150Q16
